images/50917903.svg

<?xml version="1.0" encoding="UTF-8"?>
<svg xmlns="http://www.w3.org/2000/svg" xmlns:xlink="http://www.w3.org/1999/xlink" width="300pt" height="300pt" viewBox="0 0 300 300" version="1.1">
<defs>
<g>
<symbol overflow="visible" id="glyph0-0">
<path style="stroke:none;" d="M 0.546875 1.9375 L 0.546875 -7.75 L 6.046875 -7.75 L 6.046875 1.9375 Z M 1.171875 1.328125 L 5.4375 1.328125 L 5.4375 -7.140625 L 1.171875 -7.140625 Z M 1.171875 1.328125 "/>
</symbol>
<symbol overflow="visible" id="glyph0-1">
<path style="stroke:none;" d="M 4.328125 -7.28125 C 3.546875 -7.28125 2.921875 -6.984375 2.453125 -6.390625 C 1.992188 -5.804688 1.765625 -5.007812 1.765625 -4 C 1.765625 -2.988281 1.992188 -2.1875 2.453125 -1.59375 C 2.921875 -1.007812 3.546875 -0.71875 4.328125 -0.71875 C 5.117188 -0.71875 5.742188 -1.007812 6.203125 -1.59375 C 6.660156 -2.1875 6.890625 -2.988281 6.890625 -4 C 6.890625 -5.007812 6.660156 -5.804688 6.203125 -6.390625 C 5.742188 -6.984375 5.117188 -7.28125 4.328125 -7.28125 Z M 4.328125 -8.171875 C 5.453125 -8.171875 6.351562 -7.789062 7.03125 -7.03125 C 7.707031 -6.28125 8.046875 -5.269531 8.046875 -4 C 8.046875 -2.738281 7.707031 -1.726562 7.03125 -0.96875 C 6.351562 -0.21875 5.453125 0.15625 4.328125 0.15625 C 3.203125 0.15625 2.300781 -0.21875 1.625 -0.96875 C 0.957031 -1.71875 0.625 -2.726562 0.625 -4 C 0.625 -5.269531 0.957031 -6.28125 1.625 -7.03125 C 2.300781 -7.789062 3.203125 -8.171875 4.328125 -8.171875 Z M 4.328125 -8.171875 "/>
</symbol>
<symbol overflow="visible" id="glyph0-2">
<path style="stroke:none;" d="M 1.078125 -8.015625 L 2.171875 -8.015625 L 2.171875 -4.734375 L 6.109375 -4.734375 L 6.109375 -8.015625 L 7.1875 -8.015625 L 7.1875 0 L 6.109375 0 L 6.109375 -3.8125 L 2.171875 -3.8125 L 2.171875 0 L 1.078125 0 Z M 1.078125 -8.015625 "/>
</symbol>
</g>
</defs>
<g id="surface8845">
<rect x="0" y="0" width="300" height="300" style="fill:rgb(100%,100%,100%);fill-opacity:1;stroke:none;"/>
<path style="fill:none;stroke-width:1.2;stroke-linecap:butt;stroke-linejoin:miter;stroke:rgb(100%,0%,0%);stroke-opacity:1;stroke-miterlimit:10;" d="M 80.675781 116.914062 L 91.613281 124 "/>
<path style="fill:none;stroke-width:1.2;stroke-linecap:butt;stroke-linejoin:miter;stroke:rgb(0%,0%,0%);stroke-opacity:1;stroke-miterlimit:10;" d="M 91.613281 124 L 102.550781 131.085938 "/>
<path style="fill:none;stroke-width:1.2;stroke-linecap:butt;stroke-linejoin:miter;stroke:rgb(0%,0%,0%);stroke-opacity:1;stroke-miterlimit:10;" d="M 60.433594 133.335938 L 70.554688 125.125 "/>
<path style="fill:none;stroke-width:1.2;stroke-linecap:butt;stroke-linejoin:miter;stroke:rgb(100%,0%,0%);stroke-opacity:1;stroke-miterlimit:10;" d="M 70.554688 125.125 L 80.675781 116.914062 "/>
<path style=" stroke:none;fill-rule:nonzero;fill:rgb(100%,100%,100%);fill-opacity:1;" d="M 76.675781 110.414062 L 85.675781 110.414062 L 85.675781 123.414062 L 76.675781 123.414062 Z M 76.675781 110.414062 "/>
<g style="fill:rgb(100%,0%,0%);fill-opacity:1;">
  <use xlink:href="#glyph0-1" x="76.675781" y="120.31543"/>
</g>
<path style=" stroke:none;fill-rule:nonzero;fill:rgb(0%,0%,0%);fill-opacity:1;" d="M 102.550781 131.085938 L 125.25 144.699219 L 128.539062 136.109375 Z M 102.550781 131.085938 "/>
<path style="fill:none;stroke-width:1.2;stroke-linecap:butt;stroke-linejoin:miter;stroke:rgb(0%,0%,0%);stroke-opacity:1;stroke-miterlimit:10;" d="M 102.550781 131.085938 L 114.359375 107.851562 "/>
<path style="fill:none;stroke-width:1.2;stroke-linecap:butt;stroke-linejoin:miter;stroke:rgb(0%,0%,0%);stroke-opacity:1;stroke-miterlimit:10;" d="M 102.550781 131.085938 L 95.828125 156.273438 "/>
<path style="fill:none;stroke-width:1.2;stroke-linecap:butt;stroke-linejoin:miter;stroke:rgb(0%,0%,0%);stroke-opacity:1;stroke-miterlimit:10;" d="M 126.894531 140.402344 L 147.132812 123.980469 "/>
<path style="fill:none;stroke-width:1.2;stroke-linecap:butt;stroke-linejoin:miter;stroke:rgb(0%,0%,0%);stroke-opacity:1;stroke-miterlimit:10;" d="M 147.132812 123.980469 L 171.476562 133.296875 "/>
<path style="fill:none;stroke-width:1.2;stroke-linecap:butt;stroke-linejoin:miter;stroke:rgb(0%,0%,0%);stroke-opacity:1;stroke-miterlimit:10;" d="M 151.761719 119.183594 L 171.234375 126.636719 "/>
<path style="fill:none;stroke-width:1.2;stroke-linecap:butt;stroke-linejoin:miter;stroke:rgb(0%,0%,0%);stroke-opacity:1;stroke-miterlimit:10;" d="M 143.03125 98.238281 L 147.132812 123.980469 "/>
<path style="fill:none;stroke-width:1.2;stroke-linecap:butt;stroke-linejoin:miter;stroke:rgb(0%,0%,0%);stroke-opacity:1;stroke-miterlimit:10;" d="M 171.476562 133.296875 L 191.71875 116.871094 "/>
<path style="fill:none;stroke-width:1.2;stroke-linecap:butt;stroke-linejoin:miter;stroke:rgb(0%,0%,0%);stroke-opacity:1;stroke-miterlimit:10;" d="M 191.71875 116.871094 L 216.0625 126.1875 "/>
<path style="fill:none;stroke-width:1.2;stroke-linecap:butt;stroke-linejoin:miter;stroke:rgb(0%,0%,0%);stroke-opacity:1;stroke-miterlimit:10;" d="M 191.71875 116.871094 L 187.613281 91.128906 "/>
<path style="fill:none;stroke-width:1.2;stroke-linecap:butt;stroke-linejoin:miter;stroke:rgb(0%,0%,0%);stroke-opacity:1;stroke-miterlimit:10;" d="M 185.25 115.261719 L 181.96875 94.671875 "/>
<path style="fill:none;stroke-width:1.2;stroke-linecap:butt;stroke-linejoin:miter;stroke:rgb(0%,0%,0%);stroke-opacity:1;stroke-miterlimit:10;" d="M 216.0625 126.1875 L 220.164062 151.929688 "/>
<path style="fill:none;stroke-width:1.2;stroke-linecap:butt;stroke-linejoin:miter;stroke:rgb(0%,0%,0%);stroke-opacity:1;stroke-miterlimit:10;" d="M 220.164062 151.929688 L 244.507812 161.246094 "/>
<path style="fill:none;stroke-width:1.2;stroke-linecap:butt;stroke-linejoin:miter;stroke:rgb(0%,0%,0%);stroke-opacity:1;stroke-miterlimit:10;" d="M 220.40625 158.589844 L 239.882812 166.042969 "/>
<path style="fill:none;stroke-width:1.2;stroke-linecap:butt;stroke-linejoin:miter;stroke:rgb(0%,0%,0%);stroke-opacity:1;stroke-miterlimit:10;" d="M 244.507812 161.246094 L 248.613281 186.984375 "/>
<path style="fill:none;stroke-width:1.2;stroke-linecap:butt;stroke-linejoin:miter;stroke:rgb(0%,0%,0%);stroke-opacity:1;stroke-miterlimit:10;" d="M 244.507812 161.246094 L 264.75 144.820312 "/>
<path style="fill:none;stroke-width:1.2;stroke-linecap:butt;stroke-linejoin:miter;stroke:rgb(0%,0%,0%);stroke-opacity:1;stroke-miterlimit:10;" d="M 187.613281 91.128906 L 197.734375 82.917969 "/>
<path style="fill:none;stroke-width:1.2;stroke-linecap:butt;stroke-linejoin:miter;stroke:rgb(100%,0%,0%);stroke-opacity:1;stroke-miterlimit:10;" d="M 197.734375 82.917969 L 207.855469 74.707031 "/>
<path style="fill:none;stroke-width:1.2;stroke-linecap:butt;stroke-linejoin:miter;stroke:rgb(0%,0%,0%);stroke-opacity:1;stroke-miterlimit:10;" d="M 187.613281 91.128906 L 163.269531 81.8125 "/>
<path style=" stroke:none;fill-rule:nonzero;fill:rgb(100%,100%,100%);fill-opacity:1;" d="M 199.855469 68.207031 L 216.855469 68.207031 L 216.855469 81.207031 L 199.855469 81.207031 Z M 199.855469 68.207031 "/>
<g style="fill:rgb(100%,0%,0%);fill-opacity:1;">
  <use xlink:href="#glyph0-1" x="199.855469" y="78.108398"/>
  <use xlink:href="#glyph0-2" x="208.255859" y="78.108398"/>
</g>
<path style="fill:none;stroke-width:1.2;stroke-linecap:butt;stroke-linejoin:miter;stroke:rgb(0%,0%,0%);stroke-opacity:1;stroke-miterlimit:10;" d="M 163.269531 81.8125 L 143.03125 98.238281 "/>
<path style="fill:none;stroke-width:1.2;stroke-linecap:butt;stroke-linejoin:miter;stroke:rgb(0%,0%,0%);stroke-opacity:1;stroke-miterlimit:10;" d="M 165.109375 88.21875 L 148.917969 101.359375 "/>
<path style="fill:none;stroke-width:1.2;stroke-linecap:butt;stroke-linejoin:miter;stroke:rgb(0%,0%,0%);stroke-opacity:1;stroke-miterlimit:10;" d="M 114.359375 107.851562 L 107.25 96.925781 "/>
<path style="fill:none;stroke-width:1.2;stroke-linecap:butt;stroke-linejoin:miter;stroke:rgb(100%,0%,0%);stroke-opacity:1;stroke-miterlimit:10;" d="M 107.25 96.925781 L 100.140625 86.003906 "/>
<path style="fill:none;stroke-width:1.2;stroke-linecap:butt;stroke-linejoin:miter;stroke:rgb(0%,0%,0%);stroke-opacity:1;stroke-miterlimit:10;" d="M 115.257812 110.78125 L 122.617188 108.523438 "/>
<path style="fill:none;stroke-width:1.2;stroke-linecap:butt;stroke-linejoin:miter;stroke:rgb(100%,0%,0%);stroke-opacity:1;stroke-miterlimit:10;" d="M 122.617188 108.523438 L 129.972656 106.265625 "/>
<path style="fill:none;stroke-width:1.2;stroke-linecap:butt;stroke-linejoin:miter;stroke:rgb(0%,0%,0%);stroke-opacity:1;stroke-miterlimit:10;" d="M 113.460938 104.917969 L 120.816406 102.660156 "/>
<path style="fill:none;stroke-width:1.2;stroke-linecap:butt;stroke-linejoin:miter;stroke:rgb(100%,0%,0%);stroke-opacity:1;stroke-miterlimit:10;" d="M 120.816406 102.660156 L 128.175781 100.402344 "/>
<path style="fill:none;stroke-width:1.2;stroke-linecap:butt;stroke-linejoin:miter;stroke:rgb(100%,0%,0%);stroke-opacity:1;stroke-miterlimit:10;" d="M 100.140625 86.003906 L 106.046875 74.386719 "/>
<path style="fill:none;stroke-width:1.2;stroke-linecap:butt;stroke-linejoin:miter;stroke:rgb(0%,0%,0%);stroke-opacity:1;stroke-miterlimit:10;" d="M 106.046875 74.386719 L 111.949219 62.765625 "/>
<path style=" stroke:none;fill-rule:nonzero;fill:rgb(100%,100%,100%);fill-opacity:1;" d="M 96.140625 79.503906 L 105.140625 79.503906 L 105.140625 92.503906 L 96.140625 92.503906 Z M 96.140625 79.503906 "/>
<g style="fill:rgb(100%,0%,0%);fill-opacity:1;">
  <use xlink:href="#glyph0-1" x="96.140625" y="89.405273"/>
</g>
<path style=" stroke:none;fill-rule:nonzero;fill:rgb(100%,100%,100%);fill-opacity:1;" d="M 125.074219 96.835938 L 134.074219 96.835938 L 134.074219 109.835938 L 125.074219 109.835938 Z M 125.074219 96.835938 "/>
<g style="fill:rgb(100%,0%,0%);fill-opacity:1;">
  <use xlink:href="#glyph0-1" x="125.074219" y="106.737305"/>
</g>
<path style="fill:none;stroke-width:1.2;stroke-linecap:butt;stroke-linejoin:miter;stroke:rgb(0%,0%,0%);stroke-opacity:1;stroke-miterlimit:10;" d="M 95.828125 156.273438 L 69.800781 157.664062 "/>
<path style="fill:none;stroke-width:1.2;stroke-linecap:butt;stroke-linejoin:miter;stroke:rgb(0%,0%,0%);stroke-opacity:1;stroke-miterlimit:10;" d="M 95.828125 156.273438 L 112.253906 176.511719 "/>
<path style="fill:none;stroke-width:1.2;stroke-linecap:butt;stroke-linejoin:miter;stroke:rgb(0%,0%,0%);stroke-opacity:1;stroke-miterlimit:10;" d="M 67.226562 155.996094 L 60.140625 166.933594 "/>
<path style="fill:none;stroke-width:1.2;stroke-linecap:butt;stroke-linejoin:miter;stroke:rgb(100%,0%,0%);stroke-opacity:1;stroke-miterlimit:10;" d="M 60.140625 166.933594 L 53.050781 177.871094 "/>
<path style="fill:none;stroke-width:1.2;stroke-linecap:butt;stroke-linejoin:miter;stroke:rgb(0%,0%,0%);stroke-opacity:1;stroke-miterlimit:10;" d="M 72.375 159.328125 L 65.285156 170.265625 "/>
<path style="fill:none;stroke-width:1.2;stroke-linecap:butt;stroke-linejoin:miter;stroke:rgb(100%,0%,0%);stroke-opacity:1;stroke-miterlimit:10;" d="M 65.285156 170.265625 L 58.199219 181.203125 "/>
<path style="fill:none;stroke-width:1.2;stroke-linecap:butt;stroke-linejoin:miter;stroke:rgb(0%,0%,0%);stroke-opacity:1;stroke-miterlimit:10;" d="M 69.800781 157.664062 L 60.433594 133.335938 "/>
<path style=" stroke:none;fill-rule:nonzero;fill:rgb(100%,100%,100%);fill-opacity:1;" d="M 46.625 173.039062 L 55.625 173.039062 L 55.625 186.039062 L 46.625 186.039062 Z M 46.625 173.039062 "/>
<g style="fill:rgb(100%,0%,0%);fill-opacity:1;">
  <use xlink:href="#glyph0-1" x="46.625" y="182.94043"/>
</g>
<path style="fill:none;stroke-width:1.2;stroke-linecap:butt;stroke-linejoin:miter;stroke:rgb(0%,0%,0%);stroke-opacity:1;stroke-miterlimit:10;" d="M 61.226562 130.375 L 48.632812 127.015625 "/>
<path style="fill:none;stroke-width:1.2;stroke-linecap:butt;stroke-linejoin:miter;stroke:rgb(100%,0%,0%);stroke-opacity:1;stroke-miterlimit:10;" d="M 48.632812 127.015625 L 36.039062 123.652344 "/>
<path style="fill:none;stroke-width:1.2;stroke-linecap:butt;stroke-linejoin:miter;stroke:rgb(0%,0%,0%);stroke-opacity:1;stroke-miterlimit:10;" d="M 59.644531 136.300781 L 47.050781 132.941406 "/>
<path style="fill:none;stroke-width:1.2;stroke-linecap:butt;stroke-linejoin:miter;stroke:rgb(100%,0%,0%);stroke-opacity:1;stroke-miterlimit:10;" d="M 47.050781 132.941406 L 34.460938 129.578125 "/>
<path style=" stroke:none;fill-rule:nonzero;fill:rgb(100%,100%,100%);fill-opacity:1;" d="M 26.25 120.117188 L 35.25 120.117188 L 35.25 133.117188 L 26.25 133.117188 Z M 26.25 120.117188 "/>
<g style="fill:rgb(100%,0%,0%);fill-opacity:1;">
  <use xlink:href="#glyph0-1" x="26.25" y="130.018555"/>
</g>
<path style="fill:none;stroke-width:1.2;stroke-linecap:butt;stroke-linejoin:miter;stroke:rgb(0%,0%,0%);stroke-opacity:1;stroke-miterlimit:10;" d="M 112.253906 176.511719 L 102.9375 200.855469 "/>
<path style="fill:none;stroke-width:1.2;stroke-linecap:butt;stroke-linejoin:miter;stroke:rgb(0%,0%,0%);stroke-opacity:1;stroke-miterlimit:10;" d="M 117.050781 181.136719 L 109.597656 200.613281 "/>
<path style="fill:none;stroke-width:1.2;stroke-linecap:butt;stroke-linejoin:miter;stroke:rgb(0%,0%,0%);stroke-opacity:1;stroke-miterlimit:10;" d="M 137.992188 172.40625 L 112.253906 176.511719 "/>
<path style="fill:none;stroke-width:1.2;stroke-linecap:butt;stroke-linejoin:miter;stroke:rgb(0%,0%,0%);stroke-opacity:1;stroke-miterlimit:10;" d="M 102.9375 200.855469 L 119.359375 221.097656 "/>
<path style="fill:none;stroke-width:1.2;stroke-linecap:butt;stroke-linejoin:miter;stroke:rgb(0%,0%,0%);stroke-opacity:1;stroke-miterlimit:10;" d="M 119.359375 221.097656 L 145.101562 216.992188 "/>
<path style="fill:none;stroke-width:1.2;stroke-linecap:butt;stroke-linejoin:miter;stroke:rgb(0%,0%,0%);stroke-opacity:1;stroke-miterlimit:10;" d="M 120.96875 214.628906 L 141.5625 211.347656 "/>
<path style="fill:none;stroke-width:1.2;stroke-linecap:butt;stroke-linejoin:miter;stroke:rgb(0%,0%,0%);stroke-opacity:1;stroke-miterlimit:10;" d="M 145.101562 216.992188 L 153.3125 227.113281 "/>
<path style="fill:none;stroke-width:1.2;stroke-linecap:butt;stroke-linejoin:miter;stroke:rgb(100%,0%,0%);stroke-opacity:1;stroke-miterlimit:10;" d="M 153.3125 227.113281 L 161.527344 237.234375 "/>
<path style="fill:none;stroke-width:1.2;stroke-linecap:butt;stroke-linejoin:miter;stroke:rgb(0%,0%,0%);stroke-opacity:1;stroke-miterlimit:10;" d="M 145.101562 216.992188 L 154.417969 192.648438 "/>
<path style=" stroke:none;fill-rule:nonzero;fill:rgb(100%,100%,100%);fill-opacity:1;" d="M 153.527344 230.734375 L 170.527344 230.734375 L 170.527344 243.734375 L 153.527344 243.734375 Z M 153.527344 230.734375 "/>
<g style="fill:rgb(100%,0%,0%);fill-opacity:1;">
  <use xlink:href="#glyph0-1" x="153.527344" y="240.635742"/>
  <use xlink:href="#glyph0-2" x="161.927734" y="240.635742"/>
</g>
<path style="fill:none;stroke-width:1.2;stroke-linecap:butt;stroke-linejoin:miter;stroke:rgb(0%,0%,0%);stroke-opacity:1;stroke-miterlimit:10;" d="M 154.417969 192.648438 L 137.992188 172.40625 "/>
<path style="fill:none;stroke-width:1.2;stroke-linecap:butt;stroke-linejoin:miter;stroke:rgb(0%,0%,0%);stroke-opacity:1;stroke-miterlimit:10;" d="M 148.011719 194.488281 L 134.875 178.296875 "/>
</g>
</svg>

<svg xmlns="http://www.w3.org/2000/svg" xmlns:xlink="http://www.w3.org/1999/xlink" width="300pt" height="300pt" viewBox="0 0 300 300"><defs><symbol overflow="visible"><path d="M.547 1.938V-7.75h5.5v9.688zm.625-.61h4.266v-8.47H1.171zm0 0"/></symbol><symbol overflow="visible" id="a"><path d="M4.328-7.28c-.78 0-1.406.296-1.875.89-.46.585-.687 1.382-.687 2.39 0 1.012.226 1.813.687 2.406.47.586 1.094.875 1.875.875.79 0 1.414-.288 1.875-.874.457-.593.688-1.394.688-2.406 0-1.008-.23-1.805-.687-2.39-.46-.594-1.086-.89-1.875-.89zm0-.892c1.125 0 2.024.383 2.703 1.14C7.708-6.28 8.048-5.27 8.048-4c0 1.262-.34 2.273-1.016 3.03C6.353-.22 5.454.157 4.33.157S2.3-.22 1.625-.97c-.668-.75-1-1.757-1-3.03 0-1.27.332-2.28 1-3.03.676-.76 1.578-1.142 2.703-1.142zm0 0"/></symbol><symbol overflow="visible" id="b"><path d="M1.078-8.016h1.094v3.282H6.11v-3.282h1.077V0H6.11v-3.813H2.17V0H1.078zm0 0"/></symbol></defs><g><path fill="#fff" d="M0 0h300v300H0z"/><path d="M80.676 116.914L91.613 124" stroke-width="1.2" stroke="#f00" stroke-miterlimit="10" fill="none"/><path d="M91.613 124l10.938 7.086M60.434 133.336l10.12-8.21" stroke-width="1.2" stroke="#000" stroke-miterlimit="10" fill="none"/><path d="M70.555 125.125l10.12-8.21" stroke-width="1.2" stroke="#f00" stroke-miterlimit="10" fill="none"/><path d="M76.676 110.414h9v13h-9zm0 0" fill="#fff"/><use xlink:href="#a" x="76.676" y="120.315" fill="#f00"/><path d="M102.55 131.086l22.7 13.613 3.29-8.59zm0 0"/><path d="M102.55 131.086l11.81-23.234M102.55 131.086l-6.722 25.187M126.895 140.402l20.238-16.422M147.133 123.98l24.344 9.317M151.762 119.184l19.472 7.453M143.03 98.238l4.103 25.742M171.477 133.297l20.242-16.426M191.72 116.87l24.343 9.317M191.72 116.87l-4.107-25.74M185.25 115.262l-3.28-20.59M216.063 126.188l4.1 25.742M220.164 151.93l24.344 9.316M220.406 158.59l19.477 7.453M244.508 161.246l4.105 25.738M244.508 161.246l20.242-16.426M187.613 91.13l10.12-8.212" stroke-width="1.2" stroke="#000" stroke-miterlimit="10" fill="none"/><path d="M197.734 82.918l10.12-8.21" stroke-width="1.2" stroke="#f00" stroke-miterlimit="10" fill="none"/><path d="M187.613 91.13l-24.343-9.317" stroke-width="1.2" stroke="#000" stroke-miterlimit="10" fill="none"/><path d="M199.855 68.207h17v13h-17zm0 0" fill="#fff"/><g fill="#f00"><use xlink:href="#a" x="199.855" y="78.108"/><use xlink:href="#b" x="208.256" y="78.108"/></g><path d="M163.27 81.813l-20.24 16.425M165.11 88.22l-16.192 13.14M114.36 107.852l-7.11-10.926" stroke-width="1.2" stroke="#000" stroke-miterlimit="10" fill="none"/><path d="M107.25 96.926l-7.11-10.922" stroke-width="1.2" stroke="#f00" stroke-miterlimit="10" fill="none"/><path d="M115.258 110.78l7.36-2.257" stroke-width="1.2" stroke="#000" stroke-miterlimit="10" fill="none"/><path d="M122.617 108.523l7.356-2.257" stroke-width="1.2" stroke="#f00" stroke-miterlimit="10" fill="none"/><path d="M113.46 104.918l7.356-2.258" stroke-width="1.2" stroke="#000" stroke-miterlimit="10" fill="none"/><path d="M120.816 102.66l7.36-2.258M100.14 86.004l5.907-11.617" stroke-width="1.2" stroke="#f00" stroke-miterlimit="10" fill="none"/><path d="M106.047 74.387l5.902-11.62" stroke-width="1.2" stroke="#000" stroke-miterlimit="10" fill="none"/><path d="M96.14 79.504h9v13h-9zm0 0" fill="#fff"/><use xlink:href="#a" x="96.141" y="89.405" fill="#f00"/><path d="M125.074 96.836h9v13h-9zm0 0" fill="#fff"/><use xlink:href="#a" x="125.074" y="106.737" fill="#f00"/><path d="M95.828 156.273l-26.027 1.39M95.828 156.273l16.426 20.24M67.227 155.996l-7.086 10.938" stroke-width="1.2" stroke="#000" stroke-miterlimit="10" fill="none"/><path d="M60.14 166.934l-7.09 10.937" stroke-width="1.2" stroke="#f00" stroke-miterlimit="10" fill="none"/><path d="M72.375 159.328l-7.09 10.938" stroke-width="1.2" stroke="#000" stroke-miterlimit="10" fill="none"/><path d="M65.285 170.266L58.2 181.203" stroke-width="1.2" stroke="#f00" stroke-miterlimit="10" fill="none"/><path d="M69.8 157.664l-9.366-24.328" stroke-width="1.2" stroke="#000" stroke-miterlimit="10" fill="none"/><path d="M46.625 173.04h9v13h-9zm0 0" fill="#fff"/><use xlink:href="#a" x="46.625" y="182.94" fill="#f00"/><path d="M61.227 130.375l-12.594-3.36" stroke-width="1.2" stroke="#000" stroke-miterlimit="10" fill="none"/><path d="M48.633 127.016l-12.594-3.364" stroke-width="1.2" stroke="#f00" stroke-miterlimit="10" fill="none"/><path d="M59.645 136.3l-12.594-3.36" stroke-width="1.2" stroke="#000" stroke-miterlimit="10" fill="none"/><path d="M47.05 132.94l-12.59-3.362" stroke-width="1.2" stroke="#f00" stroke-miterlimit="10" fill="none"/><path d="M26.25 120.117h9v13h-9zm0 0" fill="#fff"/><use xlink:href="#a" x="26.25" y="130.019" fill="#f00"/><path d="M112.254 176.512l-9.317 24.343M117.05 181.137l-7.452 19.476M137.992 172.406l-25.738 4.106M102.938 200.855l16.42 20.243M119.36 221.098l25.742-4.106M120.97 214.63l20.593-3.282M145.102 216.992l8.21 10.12" stroke-width="1.2" stroke="#000" stroke-miterlimit="10" fill="none"/><path d="M153.313 227.113l8.214 10.12" stroke-width="1.2" stroke="#f00" stroke-miterlimit="10" fill="none"/><path d="M145.102 216.992l9.316-24.344" stroke-width="1.2" stroke="#000" stroke-miterlimit="10" fill="none"/><path d="M153.527 230.734h17v13h-17zm0 0" fill="#fff"/><g fill="#f00"><use xlink:href="#a" x="153.527" y="240.636"/><use xlink:href="#b" x="161.928" y="240.636"/></g><path d="M154.418 192.648l-16.426-20.242M148.012 194.488l-13.137-16.19" stroke-width="1.2" stroke="#000" stroke-miterlimit="10" fill="none"/></g></svg>
